src/24/actions/code-block.svg

<svg xmlns="http://www.w3.org/2000/svg" viewBox="0 0 24 24"><path d="M9 4v6h6V4H9zM4 14v6h6v-6H4zm10 0v6h6v-6h-6z" fill="currentColor" color="#5d656b"/></svg>

<svg xmlns="http://www.w3.org/2000/svg" viewBox="0 0 24 24">
  <defs id="defs3051">
    <style type="text/css" id="current-color-scheme">
      .ColorScheme-Text {
        color:#5d656b;
      }
      </style>
  </defs>
 <path style="fill:currentColor;fill-opacity:1;stroke:none" 
     d="M 9 4 L 9 10 L 15 10 L 15 4 L 9 4 z M 4 14 L 4 20 L 10 20 L 10 14 L 4 14 z M 14 14 L 14 20 L 20 20 L 20 14 L 14 14 z "
     class="ColorScheme-Text"
     />
</svg>
